X: 1
T: The Mist On The Mountain
R: jig
M: 6/8
L: 1/8
K: Ador
G|EAA ABd|e2 A AGE|~G3 GAB|dBA GED|
EAA ABd|e2A AGE|efg dBG|BAG A2:|
a|age a2b|age edB|AGE G2A|BAB GED|
age a2b|age edB|AGE G2A|BAG A3|
age a2b|age edB|AGE G2A|BAB GED|
EDE G2A|BAG ABd|efg dBG|BAG A2||


Tune 256	Setting 30254

